www/assets/icons/waves.svg

<svg width="24" height="24" viewBox="0 0 24 24" xmlns="http://www.w3.org/2000/svg" fill='currentColor'><path d="M17 16.9902C15.65 16.9902 14.8 17.4102 14.05 17.7902C13.4 18.1202 12.87 18.3902 12 18.3902C11.1 18.3902 10.6 18.1402 9.95 17.7902C9.2 17.4102 8.38 16.9902 7 16.9902C5.62 16.9902 4.8 17.4102 4.05 17.7902C3.4 18.1202 2.88 18.3902 2 18.3902V20.3402C3.35 20.3402 4.2 19.9202 4.95 19.5402C5.6 19.2102 6.12 18.9402 7 18.9402C7.88 18.9402 8.4 19.1902 9.05 19.5402C9.8 19.9202 10.62 20.3402 12 20.3402C13.38 20.3402 14.2 19.9202 14.95 19.5402C15.6 19.2102 16.13 18.9402 17 18.9402C17.9 18.9402 18.4 19.1902 19.05 19.5402C19.8 19.9202 20.63 20.3402 22 20.3402V18.3902C21.1 18.3902 20.6 18.1402 19.95 17.7902C19.2 17.4102 18.35 16.9902 17 16.9902ZM17 12.5402C15.65 12.5402 14.8 12.9702 14.05 13.3402C13.4 13.6602 12.87 13.9402 12 13.9402C11.1 13.9402 10.6 13.6902 9.95 13.3402C9.2 12.9602 8.38 12.5402 7 12.5402C5.62 12.5402 4.8 12.9702 4.05 13.3402C3.4 13.6602 2.88 13.9402 2 13.9402V15.8902C3.35 15.8902 4.2 15.4602 4.95 15.0902C5.6 14.7402 6.1 14.4902 7 14.4902C7.9 14.4902 8.4 14.7402 9.05 15.0902C9.8 15.4702 10.62 15.8902 12 15.8902C13.38 15.8902 14.2 15.4602 14.95 15.0902C15.6 14.7402 16.1 14.4902 17 14.4902C17.9 14.4902 18.4 14.7402 19.05 15.0902C19.8 15.4702 20.63 15.8902 22 15.8902V13.9402C21.1 13.9402 20.6 13.6902 19.95 13.3402C19.2 12.9602 18.35 12.5402 17 12.5402ZM19.95 4.46016C19.2 4.08016 18.37 3.66016 17 3.66016C15.63 3.66016 14.8 4.08016 14.05 4.46016C13.4 4.78016 12.87 5.06016 12 5.06016C11.1 5.06016 10.6 4.81016 9.95 4.46016C9.2 4.09016 8.38 3.66016 7 3.66016C5.62 3.66016 4.8 4.08016 4.05 4.46016C3.4 4.79016 2.88 5.06016 2 5.06016V6.99016C3.35 6.99016 4.2 6.56016 4.95 6.19016C5.6 5.86016 6.12 5.59016 7 5.59016C7.88 5.59016 8.4 5.84016 9.05 6.19016C9.8 6.57016 10.62 6.99016 12 6.99016C13.38 6.99016 14.2 6.56016 14.95 6.19016C15.6 5.87016 16.13 5.59016 17 5.59016C17.9 5.59016 18.4 5.84016 19.05 6.19016C19.8 6.57016 20.63 6.99016 22 6.99016V5.04016C21.1 5.04016 20.6 4.79016 19.95 4.46016ZM17 8.09016C15.65 8.09016 14.8 8.52016 14.05 8.89016C13.4 9.24016 12.9 9.49016 12 9.49016C11.1 9.49016 10.6 9.24016 9.95 8.89016C9.2 8.51016 8.38 8.09016 7 8.09016C5.62 8.09016 4.8 8.52016 4.05 8.89016C3.4 9.24016 2.9 9.49016 2 9.49016V11.4402C3.35 11.4402 4.2 11.0102 4.95 10.6402C5.6 10.3202 6.13 10.0402 7 10.0402C7.87 10.0402 8.4 10.2902 9.05 10.6402C9.8 11.0202 10.62 11.4402 12 11.4402C13.38 11.4402 14.2 11.0102 14.95 10.6402C15.6 10.3202 16.13 10.0402 17 10.0402C17.9 10.0402 18.4 10.2902 19.05 10.6402C19.8 11.0202 20.63 11.4402 22 11.4402V9.49016C21.1 9.49016 20.6 9.24016 19.95 8.89016C19.2 8.51016 18.35 8.09016 17 8.09016Z"/></svg>

<svg xmlns="http://www.w3.org/2000/svg" width="24" height="24" viewBox="0 0 24 24" fill='currentColor'><path d="M17 16.99c-1.35 0-2.2.42-2.95.8-.65.33-1.18.6-2.05.6-.9 0-1.4-.25-2.05-.6-.75-.38-1.57-.8-2.95-.8s-2.2.42-2.95.8c-.65.33-1.17.6-2.05.6v1.95c1.35 0 2.2-.42 2.95-.8.65-.33 1.17-.6 2.05-.6s1.4.25 2.05.6c.75.38 1.57.8 2.95.8s2.2-.42 2.95-.8c.65-.33 1.18-.6 2.05-.6.9 0 1.4.25 2.05.6.75.38 1.58.8 2.95.8v-1.95c-.9 0-1.4-.25-2.05-.6-.75-.38-1.6-.8-2.95-.8m0-4.45c-1.35 0-2.2.43-2.95.8-.65.32-1.18.6-2.05.6-.9 0-1.4-.25-2.05-.6-.75-.38-1.57-.8-2.95-.8s-2.2.43-2.95.8c-.65.32-1.17.6-2.05.6v1.95c1.35 0 2.2-.43 2.95-.8.65-.35 1.15-.6 2.05-.6s1.4.25 2.05.6c.75.38 1.57.8 2.95.8s2.2-.43 2.95-.8c.65-.35 1.15-.6 2.05-.6s1.4.25 2.05.6c.75.38 1.58.8 2.95.8v-1.95c-.9 0-1.4-.25-2.05-.6-.75-.38-1.6-.8-2.95-.8m2.95-8.08c-.75-.38-1.58-.8-2.95-.8s-2.2.42-2.95.8c-.65.32-1.18.6-2.05.6-.9 0-1.4-.25-2.05-.6-.75-.37-1.57-.8-2.95-.8s-2.2.42-2.95.8c-.65.33-1.17.6-2.05.6v1.93c1.35 0 2.2-.43 2.95-.8.65-.33 1.17-.6 2.05-.6s1.4.25 2.05.6c.75.38 1.57.8 2.95.8s2.2-.43 2.95-.8c.65-.32 1.18-.6 2.05-.6.9 0 1.4.25 2.05.6.75.38 1.58.8 2.95.8V5.04c-.9 0-1.4-.25-2.05-.58M17 8.09c-1.35 0-2.2.43-2.95.8-.65.35-1.15.6-2.05.6s-1.4-.25-2.05-.6c-.75-.38-1.57-.8-2.95-.8s-2.2.43-2.95.8c-.65.35-1.15.6-2.05.6v1.95c1.35 0 2.2-.43 2.95-.8.65-.32 1.18-.6 2.05-.6s1.4.25 2.05.6c.75.38 1.57.8 2.95.8s2.2-.43 2.95-.8c.65-.32 1.18-.6 2.05-.6.9 0 1.4.25 2.05.6.75.38 1.58.8 2.95.8V9.49c-.9 0-1.4-.25-2.05-.6-.75-.38-1.6-.8-2.95-.8"/></svg>
